X: 43
T:-Shores of Lough Gowna
M:6/8
L:1/8
K:C
ABA AGE|EDE CEG|ABA AGE|c2d edc|
ABA AGE|EDE CEG|cde fdf|ecA A3::
cde g2g|gea ged|cEG cde|g2g ecA|
cde g2g|gea ged|cde fdf|ecA A3:||
